resources/svg/austin-fc.svg

<svg xmlns="http://www.w3.org/2000/svg" viewBox="0 0 140 182" width="277.350098113" height="360.555127546">
    <title>Austin FC logo</title>
    <g id="r2" stroke="none" stroke-width="1" fill="none" fill-rule="evenodd">
        <g id="Desktop" transform="translate(-650.000000, -50.000000)">
            <g id="hero">
                <g id="logo" transform="translate(650.000000, 50.000000)">
                    <path d="M130.473536,3.06376884 L9.4919235,3.06376884 L3.05823497,3.06376884 L3.05823497,9.50829305 L3.05823497,111.899769 C3.05823497,129.805887 10.0196011,146.64012 22.6599563,159.301956 C35.3005027,171.963217 52.1064317,178.936116 69.9826339,178.936116 C87.8590273,178.936116 104.664956,171.963217 117.305311,159.301956 C129.945858,146.64012 136.907224,129.805887 136.907224,111.899769 L136.907224,9.50829305 L136.907224,3.06376884 L130.473536,3.06376884 Z" id="Fill-1" fill="#000000"></path>
                    <path d="M116.548757,17.9671166 L116.548757,28.0780787 L108.809358,17.9671166 L105.278757,17.9671166 L105.278757,38.8179945 L108.801899,38.8179945 L108.801899,24.8423103 L116.548757,34.9237693 L116.548757,38.8179945 L120.071708,38.8179945 L120.071708,17.9671166 L116.548757,17.9671166 Z M69.2088661,27.1391503 C68.0318716,26.7996724 66.9872268,26.5322282 65.9764344,26.2726387 C65.075041,26.0421693 64.2241393,25.8241524 63.3527732,25.5728008 C62.9532377,25.4664745 62.5198497,25.1731672 62.5198497,24.670464 L62.5198497,22.1239966 C62.5198497,21.6684219 62.8899317,21.3113187 63.3617623,21.3113187 L67.8344945,21.3113187 C68.3063251,21.3113187 68.6764071,21.6684219 68.6764071,22.1239966 L68.6764071,23.869664 L72.3209973,23.869664 L72.3209973,21.3262619 C72.3209973,19.4742682 70.8163798,17.9671166 68.9675,17.9671166 L62.1977732,17.9671166 C60.3343579,17.9671166 58.8746858,19.4424661 58.8746858,21.3262619 L58.8746858,25.5293124 C58.8746858,27.5918514 60.7396311,28.3997398 62.1425,28.8277272 C63.4770902,29.2252535 64.4433197,29.4771798 65.4653962,29.7436661 C66.2139754,29.9381187 66.9631284,30.1325714 67.9052596,30.3935019 C68.6291667,30.574544 68.7379918,31.0176661 68.7379918,31.2659524 L68.7379918,34.6611145 C68.7379918,35.1170724 68.3681011,35.4737924 67.8956967,35.4737924 L63.3007514,35.4737924 C62.8287295,35.4737924 62.458265,35.1170724 62.458265,34.6611145 L62.458265,32.955104 L58.8134836,32.955104 L58.8134836,35.4580829 C58.8134836,37.3106514 60.3181011,38.8183777 62.1671721,38.8183777 L69.0596858,38.8183777 C70.9225273,38.8183777 72.3821995,37.3424535 72.3821995,35.4580829 L72.3821995,30.4375651 C72.3821995,28.8411377 71.3146038,27.7309377 69.2088661,27.1391503 Z M95.741735,38.8178029 L99.3868989,38.8178029 L99.3868989,17.9669251 L95.741735,17.9669251 L95.741735,38.8178029 Z M76.8759699,21.3115103 L82.135724,21.3115103 L82.135724,38.8181861 L85.7805055,38.8181861 L85.7805055,21.3115103 L91.0408333,21.3115103 L91.0408333,17.9673082 L76.8759699,17.9673082 L76.8759699,21.3115103 Z M29.816653,22.1239966 C29.816653,21.6686135 29.4467623,21.3118935 28.9749317,21.3118935 L24.3809426,21.3118935 C23.9085383,21.3118935 23.5390301,21.6686135 23.5390301,22.1239966 L23.5390301,28.3290472 L29.816653,28.3290472 L29.816653,22.1239966 Z M33.4614344,21.3268366 L33.4614344,38.8179945 L29.816653,38.8179945 L29.816653,31.9797756 L23.5390301,31.9797756 L23.5390301,38.8179945 L19.8938661,38.8179945 L19.8938661,21.3268366 C19.8938661,19.4744598 21.3984836,17.9671166 23.2479372,17.9671166 L30.1385383,17.9671166 C32.0019536,17.9671166 33.4614344,19.4426577 33.4614344,21.3268366 Z M49.275888,17.9673082 L52.9206694,17.9673082 L52.9206694,35.4584661 C52.9206694,37.3110345 51.4164344,38.8181861 49.5669809,38.8181861 L42.676571,38.8181861 C40.8131557,38.8181861 39.3540574,37.3426451 39.3540574,35.4584661 L39.3540574,17.9673082 L42.9988388,17.9673082 L42.9988388,34.6613061 C42.9988388,35.1168808 43.3687295,35.4734093 43.8407514,35.4734093 L48.4345492,35.4734093 C48.9063798,35.4734093 49.275888,35.1168808 49.275888,34.6613061 L49.275888,17.9673082 Z" id="Fill-3" fill="#FFFFFF"></path>
                    <path d="M136.907167,3.06376884 L130.473478,3.06376884 L9.49186612,3.06376884 L3.0581776,3.06376884 L3.0581776,9.50829305 L3.0581776,111.899769 C3.0581776,129.805887 10.0195437,146.64012 22.6600902,159.301956 C35.3006366,171.963217 52.1065656,178.936116 69.9827678,178.936116 C87.8589699,178.936116 104.664899,171.963217 117.305445,159.301956 C129.945992,146.64012 136.907167,129.805887 136.907167,111.899769 L136.907167,9.50829305 L136.907167,3.06376884 Z M139.965746,3.83157895e-05 L139.965746,9.50829305 L139.965746,111.899769 C139.965746,121.358596 138.114189,130.540209 134.461948,139.188657 C130.936702,147.537285 125.891921,155.033386 119.467795,161.467565 C113.043861,167.903085 105.560746,172.955788 97.2261557,176.486779 C88.5924399,180.145363 79.4260738,182.000038 69.9825765,182.000038 C60.5390792,182.000038 51.3732869,180.145363 42.7389973,176.486779 C34.4044071,172.955788 26.9212923,167.903085 20.4973579,161.467565 C14.0732322,155.033386 9.02845082,147.537285 5.50320492,139.188657 C1.85153825,130.540209 -1.91256831e-05,121.358596 -1.91256831e-05,111.899769 L-1.91256831e-05,9.50829305 L-1.91256831e-05,3.83157895e-05 L9.49186612,3.83157895e-05 L130.473478,3.83157895e-05 L139.965746,3.83157895e-05 Z M11.021347,111.899194 C11.021347,124.7164 15.1203634,136.591421 22.0714016,146.282443 C47.429571,146.273247 63.3075219,138.072518 63.3075219,116.552264 C63.3075219,108.749828 59.2874945,107.383104 54.5242432,107.383104 C44.5186421,107.383104 35.7498989,116.235009 27.7498169,116.235009 C22.4024672,116.235009 18.7148443,114.000049 16.6129317,113.030085 L18.6291612,108.63603 C18.6291612,108.63603 23.2233415,111.363539 26.8784508,111.363539 C30.7611557,111.363539 34.6740792,108.83144 34.6740792,108.83144 C34.6740792,108.83144 31.6621667,107.527554 29.228806,104.245232 C27.7385328,102.235186 26.7026858,99.1432931 26.3182596,96.557552 L31.1784781,96.557552 C31.8320027,99.5994425 33.9052268,105.347577 40.2295164,105.354666 C42.3673852,105.351026 46.8883142,103.030047 49.4108005,103.030047 C45.839653,98.6336931 44.173806,91.3556088 44.173806,91.3556088 C44.173806,91.3556088 46.2711284,90.5841204 48.7169208,89.6313983 C52.9982049,105.216729 56.3834508,98.2539836 63.5282322,104.743146 L63.5282322,104.742763 C63.5355,84.7317667 76.689571,83.7006888 76.689571,70.6438173 C76.689571,64.5941373 73.8264563,61.2474446 72.3101721,59.6113604 L74.9057186,55.4939457 C74.9057186,55.4939457 78.228806,58.5578678 80.1486421,63.6423731 C82.4720301,60.2385899 86.5540246,58.8536657 87.5908279,58.8536657 L87.5908279,63.7176636 C85.2355,63.7176636 81.8395437,67.3153246 81.3357732,72.4379541 C80.9159645,76.7101646 79.3774945,79.8143183 79.3774945,79.8143183 C79.3774945,79.8143183 81.2749536,79.0650531 83.4034508,79.0650531 C88.1682322,79.0650531 93.0133415,81.178552 93.0133415,81.178552 C95.6044891,70.9543667 99.8293525,66.9281436 107.152003,65.1633183 L107.152003,70.021952 C102.971128,71.2352215 99.8903634,74.0449183 97.6333415,82.7652088 C97.6333415,82.7652088 102.214899,84.6371267 106.524107,84.6371267 C109.557057,84.6371267 112.298724,83.9888236 114.622112,80.8026741 L119.132522,82.5667331 C119.132522,82.5667331 117.008997,89.4825415 108.351566,89.4825415 C95.7942158,89.4825415 91.9210738,83.9319246 82.8424945,83.9319246 C76.9250082,83.9319246 68.401265,88.9670025 68.401265,106.405476 L68.401265,112.838506 C68.401265,112.838506 68.3016202,130.575651 68.3016202,131.148664 C68.3016202,150.847386 64.3691885,164.652181 62.2162104,170.447445 C64.7583962,170.783857 67.3503087,170.960301 69.9827678,170.960301 C72.6152268,170.960301 75.2073306,170.783857 77.7495164,170.447445 C75.5965383,164.652181 71.6642978,150.847386 71.6642978,131.148664 C71.6642978,130.575651 71.5644617,112.838506 71.5644617,112.838506 C71.5644617,110.113678 71.5740246,108.296552 71.5740246,106.405476 C71.5740246,97.2596888 74.6016202,93.5380762 74.6016202,93.5380762 C76.4839699,98.0744741 76.4195164,103.812455 76.4195164,104.759238 C83.5767295,98.2413394 86.9539426,105.230139 91.2388607,89.6313983 C92.4267568,90.0963604 95.7819754,91.3556088 95.7819754,91.3556088 C95.7819754,91.3556088 94.1260738,98.6336931 90.5549262,103.030047 C93.0774126,103.030047 97.5983415,105.351026 99.7362104,105.354666 C106.0605,105.347577 108.133533,99.5994425 108.787249,96.557552 L113.647467,96.557552 C113.263041,99.1432931 112.227003,102.235186 110.736921,104.245232 C108.30356,107.527554 105.291456,108.83144 105.291456,108.83144 C105.291456,108.83144 109.204571,111.363539 113.087276,111.363539 C116.742385,111.363539 121.336566,108.63603 121.336566,108.63603 L123.352795,113.030085 C121.250883,114.000049 117.563068,116.235009 112.21591,116.235009 C104.215828,116.235009 95.4470847,107.383104 85.4414836,107.383104 C80.6782322,107.383104 76.6580137,108.749828 76.6580137,116.552264 C76.6580137,138.072518 92.5361557,146.273247 117.894325,146.282443 C124.845363,136.591421 128.94438,124.7164 128.94438,111.899194 L128.94438,48.8352362 L11.021347,48.8352362 L11.021347,111.899194 Z M11.021347,45.7715057 L128.944762,45.7715057 L128.944762,11.0401583 L11.021347,11.0401583 L11.021347,45.7715057 Z M107.880883,157.105312 C92.4441612,157.018718 81.8856366,145.070514 76.6270301,135.380834 C77.6104727,153.687352 88.6844344,163.762106 92.6847623,166.404554 C98.2291066,164.078786 103.344844,160.927312 107.880883,157.105312 Z M63.3386967,135.380834 C58.0800902,145.070514 47.5215656,157.018718 32.084653,157.105312 C36.6206913,160.927312 41.736429,164.078786 47.2809645,166.404746 C51.2812923,163.761914 62.3550628,153.687544 63.3386967,135.380834 Z M7.9625765,7.97642779 L132.002959,7.97642779 L132.002959,111.899194 C132.002959,146.155043 104.180828,174.024032 69.9827678,174.024032 C35.7848989,174.024032 7.9625765,146.155043 7.9625765,111.899194 L7.9625765,7.97642779 Z M31.6049809,89.4827331 C44.1623306,89.4827331 48.0356639,83.9319246 57.1140519,83.9319246 C59.8836421,83.9319246 62.4191339,84.9417373 64.5698169,86.7017731 C64.9506093,86.1442783 66.4556093,83.9905478 67.9808825,82.4443141 C65.4184235,79.1508804 63.2669754,75.9235415 63.2669754,70.6438173 C63.2669754,64.5941373 66.1300902,61.2474446 67.6463743,59.6113604 L65.0508279,55.4939457 C65.0508279,55.4939457 61.7277404,58.5578678 59.8080956,63.6425646 C57.4845164,60.2385899 53.4027131,58.8536657 52.3655273,58.8536657 L52.3655273,63.7176636 C54.7212377,63.7176636 58.117194,67.3153246 58.620582,72.4379541 C59.040582,76.7101646 60.5790519,79.8143183 60.5790519,79.8143183 C60.5790519,79.8143183 58.6815929,79.0650531 56.5532869,79.0650531 C51.788123,79.0650531 46.9432049,81.178552 46.9432049,81.178552 C44.3522486,70.9543667 40.127194,66.9281436 32.8043525,65.1633183 L32.8043525,70.021952 C36.9856093,71.2352215 40.0661831,74.0449183 42.3232049,82.7652088 C42.3232049,82.7652088 37.7414563,84.6371267 33.4326311,84.6371267 C30.3994891,84.6371267 27.6578224,83.9888236 25.3344344,80.8026741 L20.8242158,82.5667331 C20.8242158,82.5667331 22.9475492,89.4827331 31.6049809,89.4827331 Z M52.2995437,75.7292804 L52.5441612,75.8469099 L52.5998169,75.5809983 C53.0035601,73.6548636 52.7484235,71.6229773 51.8806913,69.8594931 C51.0120027,68.0960088 49.5594071,66.654952 47.7898989,65.8026173 L47.5454727,65.6849878 L47.4890519,65.9503246 C47.084735,67.8774173 47.3406366,69.9098783 48.2081776,71.6724046 C49.0757186,73.4372299 50.5294617,74.8779036 52.2995437,75.7292804 Z M29.1809918,77.6851099 C30.502194,79.140152 32.2969481,80.1219941 34.2332322,80.4495941 L34.5008005,80.4948067 L34.4809098,80.2241057 C34.337276,78.2613794 33.5301721,76.3798825 32.2095437,74.9252236 C30.887194,73.4707562 29.0930137,72.4889141 27.1567295,72.1601646 L26.8889699,72.114952 L26.9088607,72.3856531 C27.0532596,74.3489541 27.8595984,76.2316004 29.1809918,77.6851099 Z M55.6824945,87.6050678 L55.443806,87.4778594 L55.3768661,87.7405141 C55.3516202,87.8387941 55.3361284,87.9382236 55.3147077,88.0370783 C54.9199536,89.8589941 55.1054727,91.7824467 55.8590246,93.4876909 C56.4842432,94.9036509 57.4799262,96.1341625 58.7213743,97.0447373 C59.0576038,97.2911078 59.4108552,97.5135309 59.7797896,97.7106657 L60.0190519,97.8380657 L60.0859918,97.5754109 C60.104735,97.5001204 60.1160191,97.423872 60.1332322,97.3485815 C60.5476858,95.5067415 60.3665656,93.5560846 59.602877,91.8286173 C58.8076311,90.0302657 57.4135601,88.5296278 55.6824945,87.6050678 Z M40.2063743,95.3408341 C39.7077678,94.7205015 39.1238607,94.1775667 38.4823852,93.7160531 C38.0765383,93.4238952 37.6469754,93.1675625 37.1986694,92.9474383 C36.6040519,92.6562383 35.9788333,92.4259604 35.3298989,92.2749962 L35.0661557,92.2136909 L35.0699809,92.4849667 C35.094653,94.453632 35.7862377,96.3812994 37.0175492,97.9125899 C38.2486694,99.4444552 39.9806913,100.53339 41.8934508,100.97747 L42.157194,101.038775 L42.1539426,100.767499 C42.1292705,98.7999836 41.4376858,96.8726994 40.2063743,95.3408341 Z M20.099735,104.185459 C21.4752541,105.58935 23.3057732,106.501649 25.2525765,106.755491 L25.5214836,106.790358 L25.4914563,106.520807 C25.273041,104.564786 24.3957459,102.715666 23.0209918,101.312733 C21.6447077,99.9094173 19.8149536,98.9965436 17.8675765,98.741552 L17.5986694,98.7066846 L17.6292705,98.9762362 C17.847112,100.932832 18.7245984,102.783101 20.099735,104.185459 Z M69.9674672,76.1394509 L69.9781776,76.1258488 L69.9890792,76.1394509 L70.1562377,75.9262236 C71.3682322,74.3776909 72.0347623,72.4419773 72.0341885,70.4750362 C72.033041,68.5084783 71.3638333,66.5733394 70.1508825,65.0246152 L69.9831503,64.8110046 L69.9781776,64.8171352 L69.9733962,64.8110046 L69.8054727,65.0246152 C68.5927131,66.5733394 67.9233142,68.5084783 67.9223579,70.4750362 C67.9217842,72.4419773 68.5883142,74.3776909 69.8001175,75.9262236 L69.9674672,76.1394509 Z M87.3565383,75.5809983 L87.4123852,75.8469099 L87.6570027,75.7292804 C89.4270847,74.8779036 90.8808279,73.4372299 91.7483689,71.6724046 C92.6159098,69.9098783 92.8718115,67.8774173 92.4674945,65.9503246 L92.4110738,65.6849878 L92.1666475,65.8026173 C90.3971393,66.654952 88.9443525,68.0960088 88.0756639,69.8594931 C87.208123,71.6229773 86.9527951,73.6548636 87.3565383,75.5809983 Z M105.455746,80.4948067 L105.723314,80.4495941 C107.659598,80.1219941 109.454352,79.140152 110.775555,77.6851099 C112.096757,76.2316004 112.903287,74.3489541 113.047686,72.3856531 L113.067385,72.114952 L112.799817,72.1601646 C110.863533,72.4889141 109.069352,73.4707562 107.747003,74.9252236 C106.426183,76.3798825 105.61927,78.2613794 105.475445,80.2241057 L105.455746,80.4948067 Z M84.5796803,87.7405141 L84.5125492,87.4778594 L84.2740519,87.6050678 C82.5429863,88.5296278 81.1489153,90.0302657 80.3536694,91.8286173 C79.5899809,93.5560846 79.4086694,95.5067415 79.8233142,97.3485815 C79.8405273,97.423872 79.8518115,97.5001204 79.8705546,97.5754109 L79.9374945,97.8380657 L80.1765656,97.7106657 C80.5456913,97.5135309 80.8989426,97.2911078 81.2351721,97.0447373 C82.4766202,96.1341625 83.4723033,94.9036509 84.0975219,93.4876909 C84.8508825,91.7824467 85.0365929,89.8589941 84.6418388,88.0370783 C84.620418,87.9382236 84.604735,87.8387941 84.5796803,87.7405141 Z M102.757686,92.9474383 C102.309571,93.1675625 101.880008,93.4238952 101.47397,93.7160531 C100.832686,94.1775667 100.248779,94.7205015 99.7499809,95.3408341 C98.5188607,96.8726994 97.8270847,98.7999836 97.8024126,100.767499 L97.7991612,101.038775 L98.0630956,100.97747 C99.9758552,100.53339 101.707877,99.4444552 102.938997,97.9125899 C104.170309,96.3812994 104.861893,94.453632 104.886566,92.4849667 L104.890391,92.2136909 L104.626456,92.2749962 C103.977713,92.4259604 103.352495,92.6562383 102.757686,92.9474383 Z M114.46509,106.520807 L114.435063,106.790358 L114.70397,106.755491 C116.650773,106.501649 118.481292,105.58935 119.856811,104.185459 C121.231948,102.783101 122.109434,100.932832 122.327276,98.9762362 L122.357877,98.7066846 L122.088779,98.741552 C120.141402,98.9965436 118.311839,99.9094173 116.935555,101.312733 C115.560801,102.715666 114.683314,104.564786 114.46509,106.520807 Z M89.4328224,121.475651 L89.4328224,130.524116 C89.4328224,132.045253 90.6692978,133.284003 92.1884508,133.284003 L100.027112,133.284003 L100.027112,130.20188 L93.0066475,130.20188 C92.8496257,130.20188 92.7306639,130.092872 92.7306639,129.947272 L92.7306639,122.051537 C92.7306639,121.906895 92.8496257,121.797504 93.0066475,121.797504 L100.027112,121.797504 L100.027112,118.715381 L92.1884508,118.715381 C90.6692978,118.715381 89.4328224,119.954131 89.4328224,121.475651 Z M43.2603634,133.284003 L39.9625219,133.284003 L39.9625219,121.475651 C39.9625219,119.954131 41.198041,118.715381 42.7175765,118.715381 L50.5562377,118.715381 L50.5562377,121.797504 L43.5359645,121.797504 C43.3787514,121.797504 43.2603634,121.906895 43.2603634,122.051537 L43.2603634,125.597089 L50.5562377,125.597089 L50.5562377,128.900485 L43.2603634,128.89991 L43.2603634,133.284003 Z" id="Fill-5" fill="#00B140"></path>
                </g>
            </g>
        </g>
    </g>
</svg>

<svg xmlns="http://www.w3.org/2000/svg" width="277.35" height="360.555" viewBox="0 0 140 182"><g fill="none" fill-rule="evenodd"><path fill="#000" d="M130.474 3.064H3.058V111.9c0 17.906 6.962 34.74 19.602 47.402s29.446 19.634 47.323 19.634 34.682-6.973 47.322-19.634 19.602-29.496 19.602-47.402V3.064z"/><path fill="#FFF" d="M116.549 17.967v10.111l-7.74-10.11h-3.53v20.85h3.523V24.842l7.747 10.082v3.894h3.523v-20.85zm-47.34 9.172c-1.177-.34-2.222-.607-3.233-.866a88 88 0 0 1-2.623-.7c-.4-.107-.833-.4-.833-.903v-2.546c0-.456.37-.813.842-.813h4.472c.472 0 .842.357.842.813v1.746h3.645v-2.544a3.36 3.36 0 0 0-3.353-3.359h-6.77c-1.864 0-3.323 1.475-3.323 3.36v4.202c0 2.063 1.865 2.87 3.267 3.299 1.335.397 2.301.65 3.323.916.749.194 1.498.389 2.44.65.724.18.833.624.833.872v3.395c0 .456-.37.813-.842.813H63.3c-.472 0-.843-.357-.843-.813v-1.706h-3.645v2.503a3.36 3.36 0 0 0 3.354 3.36h6.893c1.863 0 3.322-1.476 3.322-3.36v-5.02c0-1.597-1.067-2.707-3.173-3.299m26.533 11.679h3.645V17.967h-3.645zM76.876 21.312h5.26v17.506h3.645V21.312h5.26v-3.345H76.876zm-47.06.812c0-.455-.37-.812-.841-.812H24.38c-.472 0-.842.357-.842.812v6.205h6.278zm3.645-.797v17.491h-3.644V31.98h-6.278v6.838h-3.645V21.327a3.36 3.36 0 0 1 3.354-3.36h6.89c1.864 0 3.323 1.476 3.323 3.36m15.815-3.36h3.645v17.491a3.36 3.36 0 0 1-3.354 3.36h-6.89c-1.864 0-3.323-1.475-3.323-3.36v-17.49H43V34.66c0 .456.37.812.842.812h4.594c.471 0 .84-.356.84-.812z"/><path fill="#00B140" d="M136.907 3.064H3.058V111.9c0 17.906 6.962 34.74 19.602 47.402s29.447 19.634 47.323 19.634 34.682-6.973 47.322-19.634 19.602-29.496 19.602-47.402V3.064M139.966 0v111.9c0 9.459-1.852 18.64-5.504 27.289a69.9 69.9 0 0 1-14.994 22.279 69.7 69.7 0 0 1-22.242 15.019c-8.634 3.658-17.8 5.513-27.243 5.513-9.444 0-18.61-1.855-27.244-5.513a69.7 69.7 0 0 1-22.242-15.02A69.9 69.9 0 0 1 5.503 139.19C1.852 130.54 0 121.359 0 111.899V0h139.966M11.02 111.9a58.8 58.8 0 0 0 11.05 34.382c25.359-.009 41.237-8.21 41.237-29.73 0-7.802-4.02-9.169-8.784-9.169-10.005 0-18.774 8.852-26.774 8.852-5.348 0-9.035-2.235-11.137-3.205l2.016-4.394s4.594 2.728 8.25 2.728c3.882 0 7.795-2.533 7.795-2.533s-3.012-1.303-5.445-4.586c-1.49-2.01-2.526-5.102-2.91-7.687h4.86c.653 3.041 2.726 8.79 9.05 8.797 2.138-.004 6.66-2.325 9.182-2.325-3.571-4.396-5.237-11.674-5.237-11.674s2.097-.772 4.543-1.725c4.281 15.586 7.666 8.623 14.811 15.112.008-20.011 13.162-21.042 13.162-34.1 0-6.049-2.864-9.396-4.38-11.032l2.596-4.117s3.323 3.064 5.243 8.148c2.323-3.403 6.405-4.788 7.442-4.788v4.864c-2.355 0-5.751 3.597-6.255 8.72-.42 4.272-1.959 7.376-1.959 7.376s1.898-.749 4.026-.749c4.765 0 9.61 2.114 9.61 2.114 2.591-10.225 6.816-14.25 14.139-16.016v4.859c-4.18 1.213-7.262 4.023-9.519 12.743 0 0 4.582 1.872 8.891 1.872 3.033 0 5.775-.648 8.098-3.834l4.51 1.764s-2.123 6.916-10.78 6.916c-12.558 0-16.43-5.551-25.51-5.551-5.917 0-14.44 5.035-14.44 22.473v6.434s-.1 17.737-.1 18.31c0 19.698-3.933 33.503-6.086 39.298a59.2 59.2 0 0 0 15.534 0c-2.153-5.795-6.086-19.6-6.086-39.298 0-.573-.1-18.31-.1-18.31 0-2.725.01-4.542.01-6.434 0-9.145 3.028-12.867 3.028-12.867 1.882 4.536 1.818 10.274 1.818 11.221 7.157-6.518 10.534.471 14.819-15.128 1.188.465 4.543 1.725 4.543 1.725s-1.656 7.278-5.227 11.674c2.522 0 7.043 2.321 9.181 2.325 6.325-.007 8.398-5.756 9.051-8.797h4.86c-.384 2.585-1.42 5.677-2.91 7.687-2.433 3.283-5.446 4.586-5.446 4.586s3.914 2.533 7.796 2.533c3.655 0 8.25-2.728 8.25-2.728l2.016 4.394c-2.102.97-5.79 3.205-11.137 3.205-8 0-16.769-8.852-26.775-8.852-4.763 0-8.783 1.367-8.783 9.17 0 21.52 15.878 29.72 41.236 29.73a58.8 58.8 0 0 0 11.05-34.384V48.835H11.021zm0-66.128h117.924V11.04H11.02zm96.86 111.333c-15.437-.086-25.995-12.034-31.254-21.724.983 18.306 12.057 28.381 16.058 31.024a59 59 0 0 0 15.196-9.3m-44.542-21.724c-5.259 9.69-15.817 21.638-31.254 21.724a59 59 0 0 0 15.196 9.3c4-2.643 15.074-12.717 16.058-31.024M7.963 7.976h124.04V111.9c0 34.256-27.822 62.125-62.02 62.125s-62.02-27.869-62.02-62.125zm23.642 81.507c12.557 0 16.43-5.551 25.51-5.551 2.769 0 5.304 1.01 7.455 2.77.38-.558 1.886-2.711 3.41-4.258-2.562-3.293-4.713-6.52-4.713-11.8 0-6.05 2.863-9.397 4.38-11.033l-2.596-4.117s-3.323 3.064-5.243 8.149c-2.323-3.404-6.405-4.79-7.442-4.79v4.865c2.355 0 5.751 3.597 6.255 8.72.42 4.272 1.958 7.376 1.958 7.376s-1.897-.749-4.026-.749c-4.765 0-9.61 2.114-9.61 2.114-2.59-10.225-6.816-14.25-14.139-16.016v4.859c4.182 1.213 7.262 4.023 9.52 12.743 0 0-4.583 1.872-8.891 1.872-3.034 0-5.775-.648-8.099-3.834l-4.51 1.764s2.124 6.916 10.781 6.916M52.3 75.729l.244.118.056-.266a8.9 8.9 0 0 0-.72-5.722 8.88 8.88 0 0 0-4.09-4.056l-.245-.118-.056.265a8.9 8.9 0 0 0 .72 5.722 8.86 8.86 0 0 0 4.09 4.057M29.18 77.685a8.85 8.85 0 0 0 5.052 2.765l.268.045-.02-.27a8.9 8.9 0 0 0-2.271-5.3 8.87 8.87 0 0 0-5.053-2.765l-.268-.045.02.27a8.88 8.88 0 0 0 2.272 5.3m26.501 9.92-.238-.127-.067.263c-.025.098-.04.197-.062.296a8.9 8.9 0 0 0 .544 5.45 8.87 8.87 0 0 0 3.92 4.224l.24.127.067-.263c.019-.075.03-.151.047-.226a8.9 8.9 0 0 0-.53-5.52 8.9 8.9 0 0 0-3.92-4.224m-15.476 7.736a8.94 8.94 0 0 0-3.008-2.393 8.8 8.8 0 0 0-1.868-.673l-.264-.061.004.271a8.88 8.88 0 0 0 1.948 5.428 8.85 8.85 0 0 0 4.875 3.064l.264.062-.003-.272a8.88 8.88 0 0 0-1.948-5.426M20.1 104.185a8.85 8.85 0 0 0 5.153 2.57l.268.035-.03-.27a8.88 8.88 0 0 0-2.47-5.207 8.86 8.86 0 0 0-5.153-2.571l-.27-.035.031.27a8.88 8.88 0 0 0 2.47 5.208M69.967 76.14l.011-.013.011.013.167-.213a8.88 8.88 0 0 0 1.878-5.451 8.9 8.9 0 0 0-1.883-5.45l-.168-.214-.005.006-.005-.006-.168.214a8.9 8.9 0 0 0-1.883 5.45 8.88 8.88 0 0 0 1.878 5.451zm17.39-.558.055.266.245-.118a8.86 8.86 0 0 0 4.091-4.057 8.9 8.9 0 0 0 .72-5.722l-.057-.265-.244.118a8.88 8.88 0 0 0-4.091 4.056 8.9 8.9 0 0 0-.72 5.722m18.099 4.914.267-.045a8.85 8.85 0 0 0 5.053-2.765 8.88 8.88 0 0 0 2.272-5.3l.02-.27-.268.045a8.87 8.87 0 0 0-5.053 2.765 8.9 8.9 0 0 0-2.272 5.3zM84.58 87.74l-.067-.263-.239.127a8.9 8.9 0 0 0-3.92 4.224 8.88 8.88 0 0 0-.53 5.52c.017.075.028.151.047.226l.066.263.24-.127a8.869 8.869 0 0 0 3.921-4.223 8.9 8.9 0 0 0 .544-5.45c-.022-.1-.037-.2-.062-.297m18.178 5.206a9 9 0 0 0-3.008 2.394 8.88 8.88 0 0 0-1.948 5.426l-.003.272.264-.062a8.85 8.85 0 0 0 4.876-3.064 8.88 8.88 0 0 0 1.948-5.428l.003-.271-.264.061a8.8 8.8 0 0 0-1.868.672m11.707 13.574-.03.27.269-.036a8.85 8.85 0 0 0 5.153-2.57 8.88 8.88 0 0 0 2.47-5.209l.03-.27-.268.036a8.86 8.86 0 0 0-5.153 2.57 8.88 8.88 0 0 0-2.47 5.209m-25.032 14.955v9.048a2.76 2.76 0 0 0 2.755 2.76h7.84v-3.082h-7.021c-.157 0-.276-.11-.276-.255v-7.895c0-.145.119-.254.276-.254h7.02v-3.083h-7.839a2.76 2.76 0 0 0-2.755 2.76M43.26 133.284h-3.297v-11.808a2.76 2.76 0 0 1 2.755-2.76h7.838v3.082h-7.02c-.157 0-.276.109-.276.254v3.545h7.296v3.303H43.26z"/></g></svg>
